X: 90
T:Welsh Morris Dance
M:3/4
L:1/8
Q:150
S:Michael Raven (Hynde Horn)
A:Wales
Z:brian_martin12345@yahoo.com
K:D
dA BG AF|GE FD EC|D/E/F/G/ AF DA|Bc de/d/ cA|ae fd ec|dB c/d/e/d/ cA|
d/e/f/g/ af eg|fa ea cA|af ge fd|ec dB cA|B/c/d/B/ A/B/A/G/ F/G/F/E/|\
Dd A/G/F/E/D2:||
